dist/svg/chef-hat-duo-tone.svg

<svg xmlns="http://www.w3.org/2000/svg" viewBox="0 0 24 24"><path d="M11.54 3.279c-1.164.109-2.157.601-3.011 1.494a4.3 4.3 0 0 0-.837 1.216l-.139.301-.267-.022c-.357-.029-1.068.035-1.442.131a4.77 4.77 0 0 0-3.427 3.38 4.72 4.72 0 0 0 .619 3.821c.44.675 1.18 1.328 1.879 1.66l.325.154v1.823c0 1.207.015 1.877.045 1.982.056.204.292.44.496.496.225.063 12.213.063 12.438 0a.82.82 0 0 0 .496-.496c.03-.105.045-.775.045-1.982v-1.823l.325-.154c.699-.332 1.439-.985 1.879-1.66a4.72 4.72 0 0 0-.539-5.871 4.7 4.7 0 0 0-2.269-1.33c-.374-.096-1.085-.16-1.442-.131l-.267.022-.139-.301c-.509-1.102-1.567-2.061-2.717-2.464a5.1 5.1 0 0 0-2.051-.246m1.28 1.579a3.46 3.46 0 0 1 1.434.819c.424.403.712.888.869 1.466.185.682.455.836 1.217.69 1.125-.214 2.115.072 2.914.843.321.31.583.689.741 1.071.19.461.225.667.223 1.293-.002.547-.01.602-.132.96-.182.532-.4.881-.802 1.284-.514.513-1.07.808-1.724.913-.26.042-1.12.06-1.12.024 0-.011.287-.452.638-.979.387-.582.648-1.015.664-1.101.126-.668-.669-1.153-1.203-.733-.058.046-.519.702-1.023 1.458l-.917 1.374H12.76l-.001-1.19c-.001-1.071-.008-1.206-.075-1.35a.73.73 0 0 0-.413-.398c-.368-.154-.78.018-.955.398-.067.144-.074.279-.075 1.35l-.001 1.19H9.401l-.917-1.374c-.504-.756-.965-1.412-1.023-1.458-.534-.42-1.329.065-1.203.733.016.086.277.519.664 1.101.351.527.638.968.638.979 0 .036-.86.018-1.12-.024a3.13 3.13 0 0 1-1.666-.847 3.3 3.3 0 0 1-.938-1.59c-.075-.293-.075-1.227 0-1.52a3.3 3.3 0 0 1 .91-1.564c.8-.772 1.79-1.058 2.917-.841.407.078.459.08.642.026.311-.093.447-.269.581-.753.318-1.146 1.276-2.033 2.474-2.29.332-.071 1.131-.049 1.46.04M17.24 17v1.24H6.76v-2.48h10.48z"/></svg>

<svg fill="none" xmlns="http://www.w3.org/2000/svg" viewBox="0 0 24 24"><path d="M11.540 3.279 C 10.376 3.388,9.383 3.880,8.529 4.773 C 8.162 5.158,7.901 5.536,7.692 5.989 L 7.553 6.290 7.286 6.268 C 6.929 6.239,6.218 6.303,5.844 6.399 C 4.173 6.828,2.860 8.123,2.417 9.779 C 2.068 11.082,2.291 12.460,3.036 13.600 C 3.476 14.275,4.216 14.928,4.915 15.260 L 5.240 15.414 5.240 17.237 C 5.240 18.444,5.255 19.114,5.285 19.219 C 5.341 19.423,5.577 19.659,5.781 19.715 C 6.006 19.778,17.994 19.778,18.219 19.715 C 18.423 19.659,18.659 19.423,18.715 19.219 C 18.745 19.114,18.760 18.444,18.760 17.237 L 18.760 15.414 19.085 15.260 C 19.784 14.928,20.524 14.275,20.964 13.600 C 22.178 11.740,21.956 9.326,20.425 7.729 C 19.791 7.068,19.034 6.624,18.156 6.399 C 17.782 6.303,17.071 6.239,16.714 6.268 L 16.447 6.290 16.308 5.989 C 15.799 4.887,14.741 3.928,13.591 3.525 C 12.978 3.310,12.203 3.217,11.540 3.279 M12.820 4.858 C 13.331 4.996,13.845 5.290,14.254 5.677 C 14.678 6.080,14.966 6.565,15.123 7.143 C 15.308 7.825,15.578 7.979,16.340 7.833 C 17.465 7.619,18.455 7.905,19.254 8.676 C 19.575 8.986,19.837 9.365,19.995 9.747 C 20.185 10.208,20.220 10.414,20.218 11.040 C 20.216 11.587,20.208 11.642,20.086 12.000 C 19.904 12.532,19.686 12.881,19.284 13.284 C 18.770 13.797,18.214 14.092,17.560 14.197 C 17.300 14.239,16.440 14.257,16.440 14.221 C 16.440 14.210,16.727 13.769,17.078 13.242 C 17.465 12.660,17.726 12.227,17.742 12.141 C 17.868 11.473,17.073 10.988,16.539 11.408 C 16.481 11.454,16.020 12.110,15.516 12.866 L 14.599 14.240 13.680 14.240 L 12.760 14.240 12.759 13.050 C 12.758 11.979,12.751 11.844,12.684 11.700 C 12.595 11.506,12.468 11.384,12.271 11.302 C 11.903 11.148,11.491 11.320,11.316 11.700 C 11.249 11.844,11.242 11.979,11.241 13.050 L 11.240 14.240 10.320 14.240 L 9.401 14.240 8.484 12.866 C 7.980 12.110,7.519 11.454,7.461 11.408 C 6.927 10.988,6.132 11.473,6.258 12.141 C 6.274 12.227,6.535 12.660,6.922 13.242 C 7.273 13.769,7.560 14.210,7.560 14.221 C 7.560 14.257,6.700 14.239,6.440 14.197 C 5.825 14.098,5.259 13.810,4.774 13.350 C 4.311 12.909,3.993 12.370,3.836 11.760 C 3.761 11.467,3.761 10.533,3.836 10.240 C 3.989 9.644,4.304 9.103,4.746 8.676 C 5.546 7.904,6.536 7.618,7.663 7.835 C 8.070 7.913,8.122 7.915,8.305 7.861 C 8.616 7.768,8.752 7.592,8.886 7.108 C 9.204 5.962,10.162 5.075,11.360 4.818 C 11.692 4.747,12.491 4.769,12.820 4.858 M17.240 17.000 L 17.240 18.240 12.000 18.240 L 6.760 18.240 6.760 17.000 L 6.760 15.760 12.000 15.760 L 17.240 15.760 17.240 17.000 " stroke="none" fill-rule="evenodd"/></svg>
